src/Pure/16/symbolic/emblems/emblem-synchronizing-symbolic.svg

<?xml version="1.0" encoding="UTF-8" standalone="no"?>
<svg
   height="16"
   width="16"
   version="1.1"
   id="svg1"
   sodipodi:docname="emblem-synchronizing-symbolic.svg"
   inkscape:version="1.4.2 (ebf0e940d0, 2025-05-08)"
   xmlns:inkscape="http://www.inkscape.org/namespaces/inkscape"
   xmlns:sodipodi="http://sodipodi.sourceforge.net/DTD/sodipodi-0.dtd"
   xmlns="http://www.w3.org/2000/svg"
   xmlns:svg="http://www.w3.org/2000/svg">
  <defs
     id="defs1">
     <style
        id="current-color-scheme"
        type="text/css">
        .ColorScheme-Text { color:#363636; }
     </style>
  </defs>
  <sodipodi:namedview
     id="namedview1"
     pagecolor="#ffffff"
     bordercolor="#000000"
     borderopacity="0.25"
     inkscape:showpageshadow="2"
     inkscape:pageopacity="0.0"
     inkscape:pagecheckerboard="0"
     inkscape:deskcolor="#d1d1d1"
     inkscape:zoom="49.6875"
     inkscape:cx="8"
     inkscape:cy="8"
     inkscape:window-width="1920"
     inkscape:window-height="1010"
     inkscape:window-x="0"
     inkscape:window-y="0"
     inkscape:window-maximized="1"
     inkscape:current-layer="svg1" />
  <path
     id="path1"
     style="fill:currentColor"
     class="ColorScheme-Text"
     d="M 8.1796875 2.0078125 A 5.999 5.999 0 0 0 3.7558594 3.7617188 A 0.5 0.5 0 1 0 4.4628906 4.46875 A 4.994 4.994 0 0 1 10.498047 3.6757812 A 4.983 4.983 0 0 1 12.982422 7.9960938 L 11 7.9960938 L 13.5 10.996094 L 16 7.9960938 L 13.994141 7.9960938 A 6 6 0 0 0 10.998047 2.8066406 A 5.983 5.983 0 0 0 8.1796875 2.0078125 z M 2.5 4.9960938 L 0 7.9960938 L 2.0039062 7.9960938 A 6.014 6.014 0 0 0 3.4726562 11.935547 A 6.003 6.003 0 0 0 12.244141 12.240234 A 0.5006376 0.5006376 0 1 0 11.537109 11.53125 A 4.998 4.998 0 0 1 5.5 12.326172 A 4.985 4.985 0 0 1 3.015625 7.9960938 L 5 7.9960938 L 2.5 4.9960938 z " />
</svg>

<svg height="16" width="16" xmlns="http://www.w3.org/2000/svg"><path d="M8.18 2.007a5.999 5.999 0 0 0-4.424 1.754.5.5 0 1 0 .707.707 4.994 4.994 0 0 1 6.035-.793 4.983 4.983 0 0 1 2.485 4.322H11l2.5 3 2.5-3h-2.006a6 6 0 0 0-2.996-5.19 5.983 5.983 0 0 0-2.818-.8zM2.5 4.997l-2.5 3h2.004a6.014 6.014 0 0 0 1.469 3.938 6.003 6.003 0 0 0 8.771.305.5.5 0 1 0-.707-.708 4.998 4.998 0 0 1-6.037.795 4.985 4.985 0 0 1-2.484-4.33H5z" fill="#363636" fill-rule="evenodd"/></svg>
